Hatter-kde/actions/16/view-pim-notes.svg

<?xml version="1.0" encoding="UTF-8"?>
<svg viewBox="0 0 16 16" xmlns="http://www.w3.org/2000/svg">
 <defs id="defs3051">
  <style id="current-color-scheme" type="text/css">.ColorScheme-Text {
        color:#363636;
      }</style>
 </defs>
 <path class="ColorScheme-Text" d="m3 2v1h-1v11h12v-11h-1v-1h-1v1h-1v-1h-1v1h-4v-1h-1v1h-1v-1h-1zm0 2h10v9h-10v-9zm1 1v1h8v-1h-8zm0 2v1h4v-1h-4zm0 2v1h6v-1h-6zm6 2v1h2v-1h-2z" fill="currentColor"/>
</svg>

<svg xmlns="http://www.w3.org/2000/svg" viewBox="0 0 16 16">
  <defs id="defs3051">
    <style type="text/css" id="current-color-scheme">
      .ColorScheme-Text {
        color:#363636;
      }
      </style>
  </defs>
 <path style="fill:currentColor;fill-opacity:1;stroke:none" 
       d="M 3 2 L 3 3 L 2 3 L 2 14 L 14 14 L 14 3 L 13 3 L 13 2 L 12 2 L 12 3 L 11 3 L 11 2 L 10 2 L 10 3 L 6 3 L 6 2 L 5 2 L 5 3 L 4 3 L 4 2 L 3 2 z M 3 4 L 13 4 L 13 13 L 3 13 L 3 4 z M 4 5 L 4 6 L 12 6 L 12 5 L 4 5 z M 4 7 L 4 8 L 8 8 L 8 7 L 4 7 z M 4 9 L 4 10 L 10 10 L 10 9 L 4 9 z M 10 11 L 10 12 L 12 12 L 12 11 L 10 11 z "
     class="ColorScheme-Text"
     />
</svg>
